images/cta-bg.svg

<svg height="1200" viewBox="0 0 1600 1200" width="1600" xmlns="http://www.w3.org/2000/svg"><g fill="none" transform="translate(-590 -735)"><path d="m745 1758h1286v1355h-1286z" fill="#ee6352" transform="matrix(.7313537 .68199836 -.68199836 .7313537 2033.888068 -292.325664)"/><path d="m667 1101.56549c143.04175 0 259-115.958252 259-259.000002 0-137.049738-106.759949-250.154728-242.923604-258.508206-16.537451-1.014553-30.766161 11.569242-31.780714 28.106693s11.569242 30.766161 28.106693 31.780714c104.559566 6.414605 186.597625 93.328415 186.597625 198.620799 0 109.904665-89.095335 199.000002-199 199.000002-16.568542 0-30 13.43146-30 30s13.431458 30 30 30z" fill="#ee6352" transform="matrix(-1 0 0 1 1563 0)"/><path d="m1200 590h1658v1355h-1658z" fill="#2f89fc" transform="matrix(.7313537 .68199836 -.68199836 .7313537 1409.516261 -1043.265489)"/><path d="m966.233169 1594.78101c-15.87375 7.11889-34.512968.02167-41.631859-15.85208-7.11889-15.87375-.021674-34.51297 15.852076-41.63186 97.493444-43.72282 182.282184-112.08834 245.923054-197.91709 8.73821-11.78473 24.45512-15.97671 37.90155-10.10902 19.90737 8.68708 41.46721 13.22904 63.72201 13.22904 88.08942 0 159.5-71.41058 159.5-159.5 0-57.75593-30.93031-110.08425-80.10476-138.37247-25.32954-14.57114-18.88876-52.78525 9.81754-58.248944 162.15747-30.863567 281.28722-173.302704 281.28722-340.378586 0-191.366666-155.13333-346.5-346.5-346.5-105.16924 0-202.56302 47.101888-268.01273 126.865872-11.03542 13.448941-30.88392 15.405484-44.33286 4.370062-13.448941-11.035422-15.405485-30.883919-4.370063-44.33286 77.291883-94.196121 192.478583-149.903074 316.715653-149.903074 226.16061 0 409.5 183.339395 409.5 409.5 0 197.464982-140.76538 365.77307-332.50784 402.26757l9.81754-58.248943c68.52136 39.417773 111.6903 112.451573 111.6903 192.981373 0 122.88336-99.61664 222.5-222.5 222.5-30.96728 0-61.10104-6.34821-88.91906-18.4873l12.59852-28.87087 25.30302 18.76185c-70.05177 94.47477-163.37934 169.72519-270.749311 217.87733zm69.495371-1215.475569c14.95534 8.88777 19.87407 28.216427 10.9863 43.171764-8.88777 14.955336-28.21643 19.87407-43.17176 10.9863-95.305125-56.63865-204.166072-86.963505-317.54308-86.963505-343.800389 0-622.4999997 278.705875-622.4999997 622.520277.0002604 8.177024.1580116 16.334583.4724597 24.469849.6719341 17.383984-12.8758628 32.021204-30.2598514 32.693144-17.3839885.67193-32.02120575-12.87587-32.69313981-30.259855-.345756-8.945251-.51946845-17.913389-.51946845-26.902135 0-378.609027 306.90535466-685.52128 685.49999966-685.52128 124.784095 0 244.750981 33.418582 349.72854 95.805441z" fill="#59cd90"/><path d="m2112.31425 1368c377.76277 0 684-306.23723 684-684 0-377.762769-306.23723-684-684-684-109.83956 0-216.02328 25.9369836-311.67012 74.9788173-14.74347 7.5595465-20.56719 25.6397127-13.00764 40.3831807 7.55954 14.743468 25.63971 20.567188 40.38318 13.007641 87.22374-44.7229854 184.03105-68.369639 284.29458-68.369639 344.62569 0 624 279.374316 624 624 0 344.62568-279.37431 624-624 624-16.56854 0-30 13.43146-30 30s13.43146 30 30 30zm-449.01628-168.00236c123.62252 107.6621 281.68523 168.00236 449.01628 168.00236 16.56855 0 30-13.43146 30-30s-13.43145-30-30-30c-152.70656 0-296.81084-55.01164-409.61134-153.24891-12.49449-10.88137-31.44437-9.57368-42.32575 2.92081-10.88137 12.49449-9.57368 31.44437 2.92081 42.32574z" fill="#f79d84"/><path d="m1355 1840h1286v494h-1286z" fill="#fac05e" transform="matrix(.7313537 .68199836 -.68199836 .7313537 1960.085882 -801.967899)"/><circle cx="954" cy="1565" fill="#42b478" r="28"/><path d="m1889.05173 948.728968c-18.77768 0-34-15.222318-34-34 0-18.777681 15.22232-34 34-34s34 15.222319 34 34c0 18.777682-15.22232 34-34 34zm135.92358-11.076425c-18.77768 0-34-15.222318-34-34 0-18.777681 15.22232-34 34-34s34 15.222319 34 34c0 18.777682-15.22232 34-34 34zm153 0c-18.77768 0-34-15.222318-34-34 0-18.777681 15.22232-34 34-34s34 15.222319 34 34c0 18.777682-15.22232 34-34 34zm163.85059-.184506c-18.77768 0-34-15.222318-34-34 0-18.777681 15.22232-34 34-34s34 15.222319 34 34c0 18.777682-15.22232 34-34 34zm-452.77417 120.260933c-9.38884 0-17-7.61116-17-17s7.61116-17 17-17 17 7.61116 17 17-7.61116 17-17 17zm151 0c-9.38884 0-17-7.61116-17-17s7.61116-17 17-17 17 7.61116 17 17-7.61116 17-17 17zm151 0c-9.38884 0-17-7.61116-17-17s7.61116-17 17-17 17 7.61116 17 17-7.61116 17-17 17zm150.77417-.08222c-9.38884 0-17-7.61116-17-17s7.61116-17 17-17 17 7.61116 17 17-7.61116 17-17 17z" fill="#ffe8c2" transform="matrix(.70710678 -.70710678 .70710678 .70710678 -61.769351 1778.0726)"/></g></svg>

<?xml version="1.0" encoding="UTF-8"?>
<svg width="1600px" height="1200px" viewBox="0 0 1600 1200" version="1.1" xmlns="http://www.w3.org/2000/svg" xmlns:xlink="http://www.w3.org/1999/xlink">
    <!-- Generator: Sketch 56.3 (81716) - https://sketch.com -->
    <title>Mataura</title>
    <desc>Created with Sketch.</desc>
    <g id="Mataura" stroke="none" stroke-width="1" fill="none" fill-rule="evenodd">
        <g transform="translate(-590.000000, -735.000000)" fill-rule="nonzero" id="Shape">
            <rect fill="#EE6352" transform="translate(1388.000000, 2435.500000) rotate(43.000000) translate(-1388.000000, -2435.500000) " x="745" y="1758" width="1286" height="1355"></rect>
            <path d="M667,1101.56549 C810.04175,1101.56549 926,985.607238 926,842.565488 C926,705.51575 819.240051,592.41076 683.076396,584.057282 C666.538945,583.042729 652.310235,595.626524 651.295682,612.163975 C650.281129,628.701426 662.864924,642.930136 679.402375,643.944689 C783.961941,650.359294 866,737.273104 866,842.565488 C866,952.470153 776.904665,1041.56549 667,1041.56549 C650.431458,1041.56549 637,1054.99695 637,1071.56549 C637,1088.13403 650.431458,1101.56549 667,1101.56549 Z" fill="#EE6352" transform="translate(781.500000, 842.782744) scale(-1, 1) translate(-781.500000, -842.782744) "></path>
            <rect fill="#2F89FC" transform="translate(2029.000000, 1267.500000) rotate(43.000000) translate(-2029.000000, -1267.500000) " x="1200" y="590" width="1658" height="1355"></rect>
            <path d="M966.233169,1594.78101 C950.359419,1601.8999 931.720201,1594.80268 924.60131,1578.92893 C917.48242,1563.05518 924.579636,1544.41596 940.453386,1537.29707 C1037.94683,1493.57425 1122.73557,1425.20873 1186.37644,1339.37998 C1195.11465,1327.59525 1210.83156,1323.40327 1224.27799,1329.27096 C1244.18536,1337.95804 1265.7452,1342.5 1288,1342.5 C1376.08942,1342.5 1447.5,1271.08942 1447.5,1183 C1447.5,1125.24407 1416.56969,1072.91575 1367.39524,1044.62753 C1342.0657,1030.05639 1348.50648,991.84228 1377.21278,986.378586 C1539.37025,955.515019 1658.5,813.075882 1658.5,646 C1658.5,454.633334 1503.36667,299.5 1312,299.5 C1206.83076,299.5 1109.43698,346.601888 1043.98727,426.365872 C1032.95185,439.814813 1013.10335,441.771356 999.65441,430.735934 C986.205469,419.700512 984.248925,399.852015 995.284347,386.403074 C1072.57623,292.206953 1187.76293,236.5 1312,236.5 C1538.16061,236.5 1721.5,419.839395 1721.5,646 C1721.5,843.464982 1580.73462,1011.77307 1388.99216,1048.26757 L1398.8097,990.018627 C1467.33106,1029.4364 1510.5,1102.4702 1510.5,1183 C1510.5,1305.88336 1410.88336,1405.5 1288,1405.5 C1257.03272,1405.5 1226.89896,1399.15179 1199.08094,1387.0127 L1211.67946,1358.14183 L1236.98248,1376.90368 C1166.93071,1471.37845 1073.60314,1546.62887 966.233169,1594.78101 Z M1035.72854,379.305441 C1050.68388,388.193211 1055.60261,407.521868 1046.71484,422.477205 C1037.82707,437.432541 1018.49841,442.351275 1003.54308,433.463505 C908.237955,376.824855 799.377008,346.5 686,346.5 C342.199611,346.5 63.5000003,625.205875 63.5000003,969.020277 C63.5002607,977.197301 63.6580119,985.35486 63.97246,993.490126 C64.6443941,1010.87411 51.0965972,1025.51133 33.7126086,1026.18327 C16.3286201,1026.8552 1.69140285,1013.3074 1.01946879,995.923415 C0.673712787,986.978164 0.500000339,978.010026 0.500000339,969.02128 C0.500000339,590.412253 307.405355,283.5 686,283.5 C810.784095,283.5 930.750981,316.918582 1035.72854,379.305441 Z" fill="#59CD90"></path>
            <path d="M2112.31425,1368 C2490.07702,1368 2796.31425,1061.76277 2796.31425,684 C2796.31425,306.237231 2490.07702,0 2112.31425,0 C2002.47469,0 1896.29097,25.9369836 1800.64413,74.9788173 C1785.90066,82.5383638 1780.07694,100.61853 1787.63649,115.361998 C1795.19603,130.105466 1813.2762,135.929186 1828.01967,128.369639 C1915.24341,83.6466536 2012.05072,60 2112.31425,60 C2456.93994,60 2736.31425,339.374316 2736.31425,684 C2736.31425,1028.62568 2456.93994,1308 2112.31425,1308 C2095.74571,1308 2082.31425,1321.43146 2082.31425,1338 C2082.31425,1354.56854 2095.74571,1368 2112.31425,1368 Z M1663.29797,1199.99764 C1786.92049,1307.65974 1944.9832,1368 2112.31425,1368 C2128.8828,1368 2142.31425,1354.56854 2142.31425,1338 C2142.31425,1321.43146 2128.8828,1308 2112.31425,1308 C1959.60769,1308 1815.50341,1252.98836 1702.70291,1154.75109 C1690.20842,1143.86972 1671.25854,1145.17741 1660.37716,1157.6719 C1649.49579,1170.16639 1650.80348,1189.11627 1663.29797,1199.99764 Z" fill="#F79D84"></path>
            <rect fill="#FAC05E" transform="translate(1998.000000, 2087.000000) rotate(43.000000) translate(-1998.000000, -2087.000000) " x="1355" y="1840" width="1286" height="494"></rect>
            <circle fill="#42B478" cx="954" cy="1565" r="28"></circle>
            <path d="M1889.05173,948.728968 C1870.27405,948.728968 1855.05173,933.50665 1855.05173,914.728968 C1855.05173,895.951287 1870.27405,880.728968 1889.05173,880.728968 C1907.82941,880.728968 1923.05173,895.951287 1923.05173,914.728968 C1923.05173,933.50665 1907.82941,948.728968 1889.05173,948.728968 Z M2024.97531,937.652543 C2006.19763,937.652543 1990.97531,922.430225 1990.97531,903.652543 C1990.97531,884.874862 2006.19763,869.652543 2024.97531,869.652543 C2043.75299,869.652543 2058.97531,884.874862 2058.97531,903.652543 C2058.97531,922.430225 2043.75299,937.652543 2024.97531,937.652543 Z M2177.97531,937.652543 C2159.19763,937.652543 2143.97531,922.430225 2143.97531,903.652543 C2143.97531,884.874862 2159.19763,869.652543 2177.97531,869.652543 C2196.75299,869.652543 2211.97531,884.874862 2211.97531,903.652543 C2211.97531,922.430225 2196.75299,937.652543 2177.97531,937.652543 Z M2341.8259,937.468037 C2323.04822,937.468037 2307.8259,922.245719 2307.8259,903.468037 C2307.8259,884.690356 2323.04822,869.468037 2341.8259,869.468037 C2360.60358,869.468037 2375.8259,884.690356 2375.8259,903.468037 C2375.8259,922.245719 2360.60358,937.468037 2341.8259,937.468037 Z M1889.05173,1057.72897 C1879.66289,1057.72897 1872.05173,1050.11781 1872.05173,1040.72897 C1872.05173,1031.34013 1879.66289,1023.72897 1889.05173,1023.72897 C1898.44057,1023.72897 1906.05173,1031.34013 1906.05173,1040.72897 C1906.05173,1050.11781 1898.44057,1057.72897 1889.05173,1057.72897 Z M2040.05173,1057.72897 C2030.66289,1057.72897 2023.05173,1050.11781 2023.05173,1040.72897 C2023.05173,1031.34013 2030.66289,1023.72897 2040.05173,1023.72897 C2049.44057,1023.72897 2057.05173,1031.34013 2057.05173,1040.72897 C2057.05173,1050.11781 2049.44057,1057.72897 2040.05173,1057.72897 Z M2191.05173,1057.72897 C2181.66289,1057.72897 2174.05173,1050.11781 2174.05173,1040.72897 C2174.05173,1031.34013 2181.66289,1023.72897 2191.05173,1023.72897 C2200.44057,1023.72897 2208.05173,1031.34013 2208.05173,1040.72897 C2208.05173,1050.11781 2200.44057,1057.72897 2191.05173,1057.72897 Z M2341.8259,1057.64675 C2332.43706,1057.64675 2324.8259,1050.03559 2324.8259,1040.64675 C2324.8259,1031.25791 2332.43706,1023.64675 2341.8259,1023.64675 C2351.21474,1023.64675 2358.8259,1031.25791 2358.8259,1040.64675 C2358.8259,1050.03559 2351.21474,1057.64675 2341.8259,1057.64675 Z" fill="#FFE8C2" transform="translate(2115.438817, 963.598503) rotate(-45.000000) translate(-2115.438817, -963.598503) "></path>
        </g>
    </g>
</svg>
